X:1
T:Cluny Water
T:Cluny Water
T:Alexander Walker
C:Alexander Walker
L:1/8
M:4/4
K:C
V:1 treble 
V:1
 D | E<GG>c A>cG>c | d>ce>c A/A/A A>F | E<GG>c d>cd<e | c>A G>E C/C/C C :| a | %6
 g>c a/g/f/e/ g<cc'>a | g>ce>c (d2 d>)a | g>c a/g/f/e/ g<ce>d | c>A GE C/C/C C>a | %10
 g>c a/g/f/e/ g<cc'>a | g<ce>c A/A/A A>G | A<c G>A c>dea | g<ce>d (c2 c) || %14

